X:1
T:Sandy River Belles
L:1/8
M:none
I:linebreak $
K:G
V:1 treble nm="Voice" snm="Voice"
V:1
"G" DEGA B4 | BAGB e2 d2 | DEGA B4 | BAGD"Em" E4 |$ DEGA B4 | BAGB e2 d2 | gage dege | dBAF G4 ::$ %8
 gage dega | b2 b2 a2 g2 | gage cege | eefg a4 |$ gage dega | b2 b2 a2 g2 | gage dege | dBAF G4 :| %16
